X:1
T:Title
%%score { ( 1 5 ) | ( 2 3 4 ) }
L:1/8
Q:1/4=120
M:4/4
K:E
V:1 treble nm="Piano"
V:5 treble 
V:2 treble 
V:3 treble 
V:4 treble 
V:1
 [eb]2!pp! [Be]6 | [Be]2 B6 | [eb]2 [Be]6 | [Be]2 B6 | [eb]2 [Be]6 | [Be]2 B6 | [eb]2 [Be]6 | %7
 ([Be]2 B6) f4 | [egb]2 [Be]4 B2 | [Be]2 B4 B2 | [db]2 B4 B2 | [Be]2 B4 B2 | [eb]2 [Be]4 B2 | %13
 x4 B4 x4 B2 | [eb]2 [Be]4 B2 | [Be]2 B4 B2 | [eb]B!mp!eB- BBeB | [Be]BeB- BBeB | [eb]BeB- BBeB | %19
 eBdB eBfB | [eg]BeB- BBeB | [Be]BeB- BBeB | [eb]BeB- BBeB | [Be]Be!<(!B edB!<)!A | %24
!mf! [EG]B,EB, EB, z B, | G4 F4 | x B,2 E2 B,2 z x3 | E8 x | [EG]B,EB, EB, z B, | B4 A4 | G4 F4 | %31
 G4 EDB,A, |!f! [E,G,]4 [EGBe]2 [Gg]2 | [ABeg]4 [FAcf]4 | [EBde]4 [DBd]4 | %35
 [EAce]3 E, [A,CE]E,[A,CF]F, | [G,B,EG]4 ([GBeg]2 [Bb]2 x | [Begb]4 [Ba]4 | [Bceg]4 [Bdf]4 | %39
 [Ee][Dd] [Cc]6) | [Beb]2 e6 | [Bd]BdB dBdB | [Be]BeB eBeB | [Bd]BdB dBdB | [Bf]BfB fBfB | %45
!>(! [Bg]BgB gBg!>)!B | !arpeggio![Bceb]2 !fermata!e6 |!mp! e>ee>e e>ed>d | e>ee>e e>ed>d | %49
 e>ee>e e>ed>d | e>ee>e e>ed>d | e>ee>e e>ed>d | e>ee>e e>ed>d | e>ee>e e>ed>d | %54
 e>!>(!ee>e e>(e!>)! .d2) | z4 (e2 g2 | g4 f4 | e4 d4 | e8) | z4 e2 x4 g2 | g4 f4 | e4 d4 | %62
 e4- d4 | e8 | [Be]2 B6 | [eb]2 [Be]6 | [Be]2 B6 | [eb]2 [Be]6 x4 | [Be]2 B6 | [eb]2!>(! [Be]6 | %70
 [Be]2 B6 | [eb]2 [Be]6 | ([Be]2!>)! B6) || %73
V:2
 z8 | z8 | z8 | z6 F2 | G8- | G8- | G8 | G8 x4 | z4!mp! E2 G2 | G4 F4 | E4 D4 | E8 | %12
 [G,EG]4 ([EG]2 z2 | [A,CEG]4 x4 A4 x2 | G4 F4 | [CEG]8) | G,E G2 !tenuto!E2 !tenuto!G2 | G4 F4 | %18
 E4 D4 | E8 | [G,G]E G2 !tenuto!E2 !tenuto!G2 | G4 F4 | E4[K:bass] D2 F2 | ED C6 | %24
 G,E,G,E, G,E,B,E, | B,E,B,E, CE,CE, | F,DF,D x7 | F,,C,F,C, F,C,F,C, x | G,E,G,E, G,E,B,E, | %29
 B,E,B,E, CE,CE, | F,DF,D F,DF,D | [C,G,]EG,E G,C,G,,C,, | [E,,,E,,]B,,,E,,G,, E,G,B,,G,, | %33
 [A,,,A,,]E,,A,,C, E,A,E,C, | [B,,,B,,]F,,B,,D, F,B,F,D, | F,,,C,,F,,A,, F,,C,,F,,,C,, | %36
 x [G,,,G,,]E,,G,, G,, E,G,E,G,, | [A,,,A,,]E,,A,,C, E,A,E,C, | [B,,,B,,]F,,B,,D, F,B,F,D, | %39
 [C,,C,]G,,C,E, G,CEG | cGEC G,E,C,G,, | C,,G,,C,E, G,CEC | C,,G,,C,E, G,CEC | C,,G,,C,E, G,CEC | %44
 C,,G,,C,E, G,CEC | C,,G,,C,E, G,CEG | !fermata!z8 | G,,E,G,B, EDB,G, | A,,E,A,C ECA,E, | %49
 B,,F,B,E FDB,F, | F,,C,F,A, CECE | G,,E,G,B, ED B,2 | A,,E,A,C ECA,E, | B,,F,B,E FEFE | %54
 C,G,CE Gc z2 |[K:treble]!p! E8 | A8 | G8 | F8 | [EG]8 G2 B2 | B4 A4 | G4 F4 | [CE]4 [DF]4 | %63
[K:bass] C8- | C8 | C,8- | C,8 | C,8- E2 G2 | C,8 | E8 | D8 | C8- | .C8 || %73
V:3
 x8 | x8 | x8 | x8 | x8 | x8 | x8 | x12 | x8 | E8 | B,8 | [F,A,]8 | x8 | x14 | [B,D]8 | x8 | x8 | %17
 A,C E2 x4 | B,D E2 x4 | F,A, E6 | x8 | A,B, E2 x4 | B,D E2[K:bass] x4 | C,8 | G,,8 | A,,8 | %26
 B,,8 F, D x | x F,,8 | G,,8 | A,,8 | B,,8 | x8 | x8 | x8 | x8 | x8 | x9 | x8 | x8 | x8 | x8 | x8 | %42
 x8 | x8 | x8 | x8 | x8 | x8 | x8 | x8 | x8 | x8 | x8 | x8 | x8 |[K:treble] [G,B,]8 | A,8 | B,8 | %58
 F,8 | [G,B,]8 x4 | A,8 | B,8 | x8 |[K:bass] C,8- | C,8 | C,,8- | C,,8 | C,,8- x4 | C,,8 | x8 | %70
 x8 | x8 | x8 || %73
V:4
 x8 | x8 | x8 | x8 | x8 | x8 | x8 | x12 | x8 | A,8 | x8 | x8 | x8 | x14 | x8 | x8 | x8 | x8 | x8 | %19
 x8 | x8 | x8 | x4[K:bass] x4 | x8 | x8 | x8 | x11 | x9 | x8 | x8 | x8 | x8 | x8 | x8 | x8 | x8 | %36
 x9 | x8 | x8 | x8 | x8 | x8 | x8 | x8 | x8 | x8 | x8 | x8 | x8 | x8 | x8 | x8 | x8 | x8 | x8 | %55
[K:treble] x8 | x8 | x8 | x8 | x12 | x8 | x8 | x8 |[K:bass] x8 | x8 | x8 | x8 | x12 | G4 F4 | x8 | %70
 x8 | x8 | x8 || %73
V:5
 x8 | x8 | x8 | x8 | x8 | x8 | x8 | x12 | x8 | x8 | x8 | x8 | x8 | x14 | x8 | x8 | x8 | x8 | x8 | %19
 x8 | x8 | x8 | x8 | x8 | x4 E2 G2 | EB,EB, z B,EB, | x7 D4 | z A,CA, EA,FA, x | x4 G2 B2 | %29
 EB,EB, EB,EB, | EB,EB, EB,EB, | ECE!<(!C x4 | x8 | x8 | x8 | x8 | x9 | x4 e2 d2 | x8 | x8 | %40
 x2!<)! x6 | x8 | x8 | x8 | x8 | x8 | x8 | x8 | x8 | x8 | x8 | x8 | x8 | x8 | x8 | x8 | B8 | B8 | %58
 A8 | x12 | e8 | B8 | B8 | B8 | x8 | x8 | x8 | x12 | x8 | x8 | x8 | x8 | x8 || %73

